X: 1
T: The Knotted Cord
R: reel
M: 4/4
L: 1/8
K: Ador
~A3B AE ~E2 | A2 Bd edBA | ~G3A GEDE | G2 BG dGBG |
~A3B AE ~E2 | A2 Bd edBA | GABe eg{a}ge | dBGA BA A2 :|
|: ea ~a2 ea ~a2 | eaab aged | eg ~g2 eg ~g2 | egga gedg |
ea ~a2 ea ~a2 | eaab aged | BABd eg{a}ga | dBGA BA A2 :|


Tune 921	Setting 14110

